public/svg/icon/tel.svg

<svg xmlns="http://www.w3.org/2000/svg" xmlns:xlink="http://www.w3.org/1999/xlink" width="32" height="32" viewBox="0 0 32 32"><defs><linearGradient id="tel-c" x1="50%" x2="50%" y1="0%" y2="100%"><stop offset="0%" stop-color="#FFF" stop-opacity=".5"/><stop offset="100%" stop-opacity=".5"/></linearGradient><circle id="tel-b" cx="16" cy="15" r="15"/><filter id="tel-a" width="111.7%" height="111.7%" x="-5.8%" y="-4.2%" filterUnits="objectBoundingBox"><feOffset dy=".5" in="SourceAlpha" result="shadowOffsetOuter1"/><feGaussianBlur in="shadowOffsetOuter1" result="shadowBlurOuter1" stdDeviation=".5"/><feComposite in="shadowBlurOuter1" in2="SourceAlpha" operator="out" result="shadowBlurOuter1"/><feColorMatrix in="shadowBlurOuter1" values="0 0 0 0 0 0 0 0 0 0 0 0 0 0 0 0 0 0 0.199473505 0"/></filter><path id="tel-e" d="M25.0801371,10.4778077 C25.7128627,10.9908406 26.1120157,12.0522067 25.9720322,12.8311694 L24.6121921,20.3548668 C24.4698089,21.1393207 23.7202971,22.00222 22.947588,22.2728566 L15.5292607,24.878028 C14.7565516,25.149449 13.6094866,24.9525511 12.976761,24.4395183 L6.9190737,19.5233457 C6.28634813,19.0103128 5.88639519,17.9544379 6.02877844,17.169984 L7.38861845,9.64628661 C7.5310017,8.86183271 8.28051353,7.99893342 9.05322262,7.72829682 L16.4731497,5.12234096 C17.2458588,4.85013546 18.3929238,5.04781784 19.0256494,5.56006624 L25.0801371,10.4778077 Z M18.7688796,13.8556662 L19.071244,12.3267656 L16.2387773,12.3314723 L16.6387302,10.3154258 L15.7244378,10.3154258 C15.0699522,11.3222675 14.1080995,12.100824 12.9759611,12.540137 L12.7191913,13.858804 L13.9574456,13.858804 C13.9574456,13.858804 13.538295,15.7532602 13.3975115,16.4522086 C13.0463528,18.2313501 13.9262493,19.4935364 15.2788902,19.4935364 L17.566621,19.4935364 L17.966574,17.8038227 L16.0531991,17.8038227 C15.2028991,17.8038227 15.2476939,17.339426 15.4132744,16.5141805 L15.9396125,13.851744 L18.7688796,13.8556662 Z"/><filter id="tel-d" width="117.5%" height="117.5%" x="-8.8%" y="-6.2%" filterUnits="objectBoundingBox"><feOffset dy=".5" in="SourceAlpha" result="shadowOffsetOuter1"/><feGaussianBlur in="shadowOffsetOuter1" result="shadowBlurOuter1" stdDeviation=".5"/><feColorMatrix in="shadowBlurOuter1" values="0 0 0 0 0 0 0 0 0 0 0 0 0 0 0 0 0 0 0.204257246 0"/></filter></defs><g fill="none" fill-rule="evenodd"><use fill="#000" filter="url(#tel-a)" xlink:href="#tel-b"/><use fill="#14C8FF" xlink:href="#tel-b"/><use fill="url(#tel-c)" style="mix-blend-mode:soft-light" xlink:href="#tel-b"/><circle cx="16" cy="15" r="14.5" stroke="#000" stroke-opacity=".097"/><g fill-rule="nonzero"><use fill="#000" filter="url(#tel-d)" xlink:href="#tel-e"/><use fill="#FFF" fill-rule="evenodd" xlink:href="#tel-e"/></g></g></svg>

<svg xmlns="http://www.w3.org/2000/svg" xmlns:xlink="http://www.w3.org/1999/xlink" width="32" height="32" viewBox="0 0 32 32"><defs><filter id="a" width="111.7%" height="111.7%" x="-5.8%" y="-4.2%" filterUnits="objectBoundingBox"><feOffset dy=".5" in="SourceAlpha" result="shadowOffsetOuter1"/><feGaussianBlur in="shadowOffsetOuter1" result="shadowBlurOuter1" stdDeviation=".5"/><feComposite in="shadowBlurOuter1" in2="SourceAlpha" operator="out" result="shadowBlurOuter1"/><feColorMatrix in="shadowBlurOuter1" values="0 0 0 0 0 0 0 0 0 0 0 0 0 0 0 0 0 0 0.199473505 0"/></filter><filter id="d" width="117.5%" height="117.5%" x="-8.8%" y="-6.2%" filterUnits="objectBoundingBox"><feOffset dy=".5" in="SourceAlpha" result="shadowOffsetOuter1"/><feGaussianBlur in="shadowOffsetOuter1" result="shadowBlurOuter1" stdDeviation=".5"/><feColorMatrix in="shadowBlurOuter1" values="0 0 0 0 0 0 0 0 0 0 0 0 0 0 0 0 0 0 0.204257246 0"/></filter><linearGradient id="c" x1="50%" x2="50%" y1="0%" y2="100%"><stop offset="0%" stop-color="#FFF" stop-opacity=".5"/><stop offset="100%" stop-opacity=".5"/></linearGradient><circle id="b" cx="16" cy="15" r="15"/><path id="e" d="M25.08 10.478c.633.513 1.032 1.574.892 2.353l-1.36 7.524c-.142.784-.892 1.647-1.664 1.918l-7.419 2.605c-.772.271-1.92.075-2.552-.438l-6.058-4.917c-.633-.513-1.033-1.569-.89-2.353l1.36-7.524C7.53 8.862 8.28 8 9.053 7.728l7.42-2.606c.773-.272 1.92-.074 2.553.438l6.054 4.918zm-6.311 3.378l.302-1.53-2.832.005.4-2.016h-.915a5.759 5.759 0 01-2.748 2.225l-.257 1.319h1.238s-.419 1.894-.56 2.593c-.35 1.78.53 3.042 1.882 3.042h2.288l.4-1.69h-1.914c-.85 0-.805-.465-.64-1.29l.527-2.662 2.829.004z"/></defs><g fill="none" fill-rule="evenodd"><use fill="#000" filter="url(#a)" xlink:href="#b"/><use fill="#14C8FF" xlink:href="#b"/><use fill="url(#c)" style="mix-blend-mode:soft-light" xlink:href="#b"/><circle cx="16" cy="15" r="14.5" stroke="#000" stroke-opacity=".097"/><g fill-rule="nonzero"><use fill="#000" filter="url(#d)" xlink:href="#e"/><use fill="#FFF" fill-rule="evenodd" xlink:href="#e"/></g></g></svg>
